X:1
T:Title
%%score { ( 1 4 ) | ( 2 3 ) }
L:1/8
Q:1/4=106
M:4/4
K:E
V:1 treble nm="Grand Piano"
V:4 treble 
V:2 bass 
V:3 bass 
V:1
 [GB]3 [GB] [=G^A]2 [^GB]2 | [Ac]2 [GB]2 G B3 | E3 F G2 E2 | [EG]2 [DF]2 E4 | %4
w: J.~Lincoln~Hall * * *||||
 [GB]3 [GB] [=G^A]2 [^GB]2 | [Ac]2 [GB]2 G B3 | G3 G F2 B2 | c2 ^A2 [B,DB]4 | %8
w: ||||
 [B,GB]2 .[EGc]2 [Ge]2 [GB]2 | z2 .c2 z4 | c2 c2 B2 B2 | ^A2 A2 [B,DB]4 | %12
w: ||||
 [B,GB]2 .[EGc]2 [Ge]2 [GB]2 | [EA]2 [Ac]2 [GB]2 G2 | E2 F2 G B3 | [DF]2 [DG]2 E4 |] %16
w: ||||
V:2
 [E,E]3 [E,E] [E,E]2 [E,E]2 | [E,E]2 [E,E]2 [E,B,E] [E,G,E]3 | [E,G,]3 [E,A,E] [E,B,E]2 [E,G,]2 | %3
 [B,,B,]2 [B,,A,]2 [E,G,]4 | [E,E]3 [E,E] [E,E]2 [E,E]2 | [E,E]2 [E,E]2 [E,B,E] [E,G,E]3 | %6
 [E,B,E]3 [E,B,E] [F,B,D]2 [F,B,D]2 | [F,^A,E]2 [F,CE]2 B,,4 | %8
 E,2 z[K:treble] d[K:bass] [E,B,]2 [E,E]2 | [E,E]2 [E,E]2 [E,B,]2 [E,B,]2 | %10
 [A,E]2 [A,E]2 [G,B,E]2 [G,B,E]2 | [F,CE]2 [F,CE]2 B,,4 | %12
 E,2 z[K:treble] d[K:bass] [E,B,]2 [E,E]2 | [A,C]2 [A,E]2 [E,E]2 [F,B,E]2 | %14
 [E,G,]2 [E,A,E]2 [E,B,E] [E,G,E]3 | [B,,A,]2 [B,,B,]2 [E,G,]4 |] %16
V:3
 x8 | x8 | x8 | x8 | x8 | x8 | x8 | x8 | z2 E,2[K:treble][K:bass] z4 | x8 | x8 | x8 | %12
 z2 E,2[K:treble][K:bass] z4 | x8 | x8 | x8 |] %16
V:4
 x8 | x8 | x8 | x8 | x8 | x8 | x8 | x8 | x8 | [GB]2 G-[Gd] [Ge]2 [GB]2 | x8 | x8 | x8 | x8 | x8 | %15
 x8 |] %16

